Newaita-dark/apps/64/gnome-2048.svg

<svg height="64" viewBox="0 0 64 64" width="64" xmlns="http://www.w3.org/2000/svg" xmlns:xlink="http://www.w3.org/1999/xlink"><linearGradient id="a" gradientUnits="userSpaceOnUse" x1="31.75304" x2="31.75304" y1="54.940838" y2="57.58692600006"><stop offset="0" stop-opacity=".27451"/><stop offset="1" stop-opacity="0"/></linearGradient><linearGradient id="b"><stop offset="0" stop-opacity=".313726"/><stop offset=".222222" stop-opacity=".27451"/><stop offset="1" stop-opacity="0"/></linearGradient><radialGradient id="c" cx="450.908936" cy="189.579361" gradientTransform="matrix(.00000035 -.156265 -.281277 -.0000002 102.938252 126.063631)" gradientUnits="userSpaceOnUse" r="21.166656" xlink:href="#b"/><radialGradient id="d" cx="450.908936" cy="189.579361" gradientTransform="matrix(-.00000035 .156265 .281277 .0000002 -39.432194 -16.181992)" gradientUnits="userSpaceOnUse" r="21.166656" xlink:href="#b"/><radialGradient id="e" cx="450.908936" cy="189.579361" gradientTransform="matrix(-.00000035 -.156265 .281277 -.0000002 -39.432194 126.063631)" gradientUnits="userSpaceOnUse" r="21.166656" xlink:href="#b"/><radialGradient id="f" cx="450.908936" cy="189.579361" gradientTransform="matrix(.00000035 .156265 -.281277 .0000002 102.938248 -16.181993)" gradientUnits="userSpaceOnUse" r="21.166656" xlink:href="#b"/><linearGradient id="g"><stop offset="0" stop-color="#e0e0e0"/><stop offset="1" stop-color="#eee"/></linearGradient><linearGradient id="h" gradientUnits="userSpaceOnUse" x1="15.876524" x2="15.876524" xlink:href="#g" y1="22.99177424999" y2="7.11525100006"/><linearGradient id="i" gradientUnits="userSpaceOnUse" x1="47.629572" x2="47.629572" y1="22.99177424999" y2="7.11525100006"><stop offset="0" stop-color="#9ccc65"/><stop offset="1" stop-color="#aed581"/></linearGradient><linearGradient id="j" gradientUnits="userSpaceOnUse" x1="15.876524" x2="15.876524" xlink:href="#g" y1="54.74482300006" y2="38.86829799997"/><linearGradient id="k" gradientUnits="userSpaceOnUse" x1="15.876524" x2="15.876524" xlink:href="#g" y1="38.86829999997" y2="22.99177624999"/><linearGradient id="l" gradientUnits="userSpaceOnUse" x1="47.629572" x2="47.629572" y1="54.74482300006" y2="38.86829799997"><stop offset="0" stop-color="#ff7043"/><stop offset="1" stop-color="#ff8a65"/></linearGradient><linearGradient id="m" gradientUnits="userSpaceOnUse" x1="47.629572" x2="47.629572" y1="38.86829999997" y2="22.99177624999"><stop offset="0" stop-color="#29b6f6"/><stop offset="1" stop-color="#4fc3f7"/></linearGradient><linearGradient id="n" gradientUnits="userSpaceOnUse" x1="31.753048" x2="31.753048" y1="38.86829999997" y2="22.99177624999"><stop offset="0" stop-color="#ffa726"/><stop offset="1" stop-color="#ffb74d"/></linearGradient><linearGradient id="o" gradientUnits="userSpaceOnUse" x1="31.753048" x2="31.753048" y1="54.74482500006" y2="38.86829999997"><stop offset="0" stop-color="#ef5350"/><stop offset="1" stop-color="#e57373"/></linearGradient><linearGradient id="p" gradientUnits="userSpaceOnUse" x1="31.753048" x2="31.753048" xlink:href="#g" y1="22.99177624999" y2="7.11525300006"/><path d="m13.230469 54.84375h37.046875v2.839844h-37.046875zm0 0" fill="url(#a)"/><path d="m50.277344 54.941406h5.289062v-2.648437h-5.289062zm0 0" fill="url(#c)"/><path d="m13.230469 54.941406h-5.292969v2.644532h5.292969zm0 0" fill="url(#d)"/><path d="m13.230469 54.941406h-5.292969v-2.648437h5.292969zm0 0" fill="url(#e)"/><path d="m50.277344 54.941406h5.289062v2.644532h-5.289062zm0 0" fill="url(#f)"/><path d="m10.585938 7.113281c-1.46875 0-2.648438 1.183594-2.648438 2.648438v13.230469h15.878906v-15.878907zm0 0" fill="url(#h)"/><path d="m39.691406 7.113281v15.878907h15.875v-13.230469c0-1.464844-1.179687-2.648438-2.644531-2.648438zm0 0" fill="url(#i)"/><path d="m7.9375 38.867188v13.230468c0 1.46875 1.179688 2.648438 2.648438 2.648438h13.230468v-15.878906zm0 0" fill="url(#j)"/><path d="m7.9375 22.992188h15.878906v15.875h-15.878906zm0 0" fill="url(#k)"/><path d="m39.691406 38.867188v15.878906h13.230469c1.464844 0 2.644531-1.179688 2.644531-2.648438v-13.230468zm0 0" fill="url(#l)"/><path d="m39.691406 22.992188h15.875v15.875h-15.875zm0 0" fill="url(#m)"/><path d="m23.816406 22.992188h15.875v15.875h-15.875zm0 0" fill="url(#n)"/><path d="m23.816406 38.867188h15.875v15.878906h-15.875zm0 0" fill="url(#o)"/><path d="m23.816406 7.117188h15.875v15.875h-15.875zm0 0" fill="url(#p)"/><path d="m10.585938 7.113281c-1.46875 0-2.648438 1.183594-2.648438 2.648438v.359375c0-1.464844 1.179688-2.644532 2.648438-2.644532h42.335937c1.464844 0 2.644531 1.179688 2.644531 2.644532v-.359375c0-1.464844-1.179687-2.648438-2.644531-2.648438zm0 0" fill="#fff" fill-opacity=".784314"/><path d="m10.585938 54.773438c-1.46875 0-2.648438-1.179688-2.648438-2.644532v-.359375c0 1.464844 1.179688 2.644531 2.648438 2.644531h42.335937c1.464844 0 2.644531-1.179687 2.644531-2.644531v.359375c0 1.464844-1.179687 2.644532-2.644531 2.644532zm0 0" fill-opacity=".235294"/><g fill="#fff"><path d="m7.9375 22.992188v.660156h15.878906v-.660156zm0 0"/><path d="m10.585938 7.113281c-1.46875 0-2.648438 1.183594-2.648438 2.648438v.660156c0-1.464844 1.179688-2.644531 2.648438-2.644531h13.230468v-.664063zm0 0"/><path d="m39.691406 7.113281v.664063h13.230469c1.464844 0 2.644531 1.179687 2.644531 2.644531v-.660156c0-1.464844-1.179687-2.648438-2.644531-2.648438zm0 0" fill-opacity=".588235"/><path d="m7.9375 38.867188v.664062h15.878906v-.664062zm0 0" fill-opacity=".980645"/><path d="m39.691406 38.867188v.664062h15.875v-.664062zm0 0" fill-opacity=".392157"/><path d="m39.691406 22.992188v.660156h15.875v-.660156zm0 0" fill-opacity=".392157"/><path d="m23.816406 22.992188v.660156h15.875v-.660156zm0 0" fill-opacity=".784314"/><path d="m23.816406 38.867188v.664062h15.875v-.664062zm0 0" fill-opacity=".392157"/><path d="m23.816406 7.113281v.664063h15.875v-.664063zm0 0"/></g><path d="m7.9375 38.207031v.660157h15.878906v-.660157zm0 0" fill-opacity=".235294"/><path d="m7.9375 22.332031v.660157h15.878906v-.660157zm0 0" fill-opacity=".235294"/><path d="m39.691406 22.332031v.660157h15.875v-.660157zm0 0" fill-opacity=".235294"/><path d="m7.9375 51.4375v.660156c0 1.46875 1.179688 2.648438 2.648438 2.648438h13.230468v-.664063h-13.230468c-1.46875 0-2.648438-1.179687-2.648438-2.644531zm0 0" fill-opacity=".235294"/><path d="m55.566406 51.4375c0 1.464844-1.179687 2.644531-2.644531 2.644531h-13.230469v.664063h13.230469c1.464844 0 2.644531-1.179688 2.644531-2.648438zm0 0" fill-opacity=".235294"/><path d="m39.691406 38.207031v.660157h15.875v-.660157zm0 0" fill-opacity=".235294"/><path d="m23.816406 38.207031v.660157h15.875v-.660157zm0 0" fill-opacity=".235294"/><path d="m23.816406 54.082031v.664063h15.875v-.664063zm0 0" fill-opacity=".235294"/><path d="m23.816406 22.332031v.660157h15.875v-.660157zm0 0" fill-opacity=".235294"/><path d="m10.585938 6.925781c-1.566407 0-2.835938 1.269531-2.835938 2.835938v42.335937c0 1.566406 1.269531 2.835938 2.835938 2.835938h42.335937c1.566406 0 2.832031-1.269532 2.832031-2.835938v-42.335937c0-1.566407-1.265625-2.835938-2.832031-2.835938zm13.417968.375h15.5v15.503907h-15.5zm-13.417968.003907h13.042968v15.5h-15.503906v-13.042969c0-1.367188 1.09375-2.457031 2.460938-2.457031zm29.292968 0h13.042969c1.363281 0 2.457031 1.089843 2.457031 2.457031v13.042969h-15.5zm-15.875 15.875h15.5v15.5h-15.5zm-15.878906 0h15.503906v15.5h-15.503906zm31.753906 0h15.5v15.5h-15.5zm-15.875 15.875h15.5v15.503906h-15.5zm15.875 0h15.5v13.042968c0 1.367188-1.09375 2.460938-2.457031 2.460938h-13.042969zm-31.753906 0h15.503906v15.503906h-13.042968c-1.367188 0-2.460938-1.09375-2.460938-2.460938zm0 0" fill="#212121"/></svg>

<?xml version="1.0" encoding="UTF-8"?>
<svg xmlns="http://www.w3.org/2000/svg" xmlns:xlink="http://www.w3.org/1999/xlink" width="64px" height="64px" viewBox="0 0 64 64" version="1.1">
<defs>
<linearGradient id="linear0" gradientUnits="userSpaceOnUse" x1="254" y1="233.5" x2="254" y2="254.666672" gradientTransform="matrix(0.125012,0,0,0.125012,-0.00000763012,25.750536)">
<stop offset="0" style="stop-color:rgb(0%,0%,0%);stop-opacity:0.27451;"/>
<stop offset="1" style="stop-color:rgb(0%,0%,0%);stop-opacity:0;"/>
</linearGradient>
<radialGradient id="radial0" gradientUnits="userSpaceOnUse" cx="450.908936" cy="189.579361" fx="450.908936" fy="189.579361" r="21.166656" gradientTransform="matrix(0.000000348341,-0.156265,-0.281277,-0.000000203077,102.938252,126.063631)">
<stop offset="0" style="stop-color:rgb(0%,0%,0%);stop-opacity:0.313726;"/>
<stop offset="0.222222" style="stop-color:rgb(0%,0%,0%);stop-opacity:0.27451;"/>
<stop offset="1" style="stop-color:rgb(0%,0%,0%);stop-opacity:0;"/>
</radialGradient>
<radialGradient id="radial1" gradientUnits="userSpaceOnUse" cx="450.908936" cy="189.579361" fx="450.908936" fy="189.579361" r="21.166656" gradientTransform="matrix(-0.000000348341,0.156265,0.281277,0.000000203077,-39.432194,-16.181992)">
<stop offset="0" style="stop-color:rgb(0%,0%,0%);stop-opacity:0.313726;"/>
<stop offset="0.222222" style="stop-color:rgb(0%,0%,0%);stop-opacity:0.27451;"/>
<stop offset="1" style="stop-color:rgb(0%,0%,0%);stop-opacity:0;"/>
</radialGradient>
<radialGradient id="radial2" gradientUnits="userSpaceOnUse" cx="450.908936" cy="189.579361" fx="450.908936" fy="189.579361" r="21.166656" gradientTransform="matrix(-0.000000348341,-0.156265,0.281277,-0.000000203077,-39.432194,126.063631)">
<stop offset="0" style="stop-color:rgb(0%,0%,0%);stop-opacity:0.313726;"/>
<stop offset="0.222222" style="stop-color:rgb(0%,0%,0%);stop-opacity:0.27451;"/>
<stop offset="1" style="stop-color:rgb(0%,0%,0%);stop-opacity:0;"/>
</radialGradient>
<radialGradient id="radial3" gradientUnits="userSpaceOnUse" cx="450.908936" cy="189.579361" fx="450.908936" fy="189.579361" r="21.166656" gradientTransform="matrix(0.000000348341,0.156265,-0.281277,0.000000203077,102.938248,-16.181993)">
<stop offset="0" style="stop-color:rgb(0%,0%,0%);stop-opacity:0.313726;"/>
<stop offset="0.222222" style="stop-color:rgb(0%,0%,0%);stop-opacity:0.27451;"/>
<stop offset="1" style="stop-color:rgb(0%,0%,0%);stop-opacity:0;"/>
</radialGradient>
<linearGradient id="linear1" gradientUnits="userSpaceOnUse" x1="127" y1="-31.083334" x2="127" y2="-158.083328" gradientTransform="matrix(0.125012,0,0,0.125012,0,26.877564)">
<stop offset="0" style="stop-color:rgb(87.843138%,87.843138%,87.843138%);stop-opacity:1;"/>
<stop offset="1" style="stop-color:rgb(93.333334%,93.333334%,93.333334%);stop-opacity:1;"/>
</linearGradient>
<linearGradient id="linear2" gradientUnits="userSpaceOnUse" x1="381" y1="-31.083334" x2="381" y2="-158.083328" gradientTransform="matrix(0.125012,0,0,0.125012,0,26.877564)">
<stop offset="0" style="stop-color:rgb(61.176473%,80.000001%,39.607844%);stop-opacity:1;"/>
<stop offset="1" style="stop-color:rgb(68.235296%,83.529413%,50.588238%);stop-opacity:1;"/>
</linearGradient>
<linearGradient id="linear3" gradientUnits="userSpaceOnUse" x1="127" y1="222.916672" x2="127" y2="95.916664" gradientTransform="matrix(0.125012,0,0,0.125012,0,26.877564)">
<stop offset="0" style="stop-color:rgb(87.843138%,87.843138%,87.843138%);stop-opacity:1;"/>
<stop offset="1" style="stop-color:rgb(93.333334%,93.333334%,93.333334%);stop-opacity:1;"/>
</linearGradient>
<linearGradient id="linear4" gradientUnits="userSpaceOnUse" x1="127" y1="95.916664" x2="127" y2="-31.083334" gradientTransform="matrix(0.125012,0,0,0.125012,0,26.877566)">
<stop offset="0" style="stop-color:rgb(87.843138%,87.843138%,87.843138%);stop-opacity:1;"/>
<stop offset="1" style="stop-color:rgb(93.333334%,93.333334%,93.333334%);stop-opacity:1;"/>
</linearGradient>
<linearGradient id="linear5" gradientUnits="userSpaceOnUse" x1="381" y1="222.916672" x2="381" y2="95.916664" gradientTransform="matrix(0.125012,0,0,0.125012,0,26.877564)">
<stop offset="0" style="stop-color:rgb(100%,43.921569%,26.274511%);stop-opacity:1;"/>
<stop offset="1" style="stop-color:rgb(100%,54.11765%,39.607844%);stop-opacity:1;"/>
</linearGradient>
<linearGradient id="linear6" gradientUnits="userSpaceOnUse" x1="381" y1="95.916664" x2="381" y2="-31.083334" gradientTransform="matrix(0.125012,0,0,0.125012,0,26.877566)">
<stop offset="0" style="stop-color:rgb(16.078432%,71.372551%,96.470588%);stop-opacity:1;"/>
<stop offset="1" style="stop-color:rgb(30.980393%,76.47059%,96.862745%);stop-opacity:1;"/>
</linearGradient>
<linearGradient id="linear7" gradientUnits="userSpaceOnUse" x1="254" y1="95.916664" x2="254" y2="-31.083334" gradientTransform="matrix(0.125012,0,0,0.125012,0,26.877566)">
<stop offset="0" style="stop-color:rgb(100%,65.490198%,14.901961%);stop-opacity:1;"/>
<stop offset="1" style="stop-color:rgb(100%,71.764708%,30.19608%);stop-opacity:1;"/>
</linearGradient>
<linearGradient id="linear8" gradientUnits="userSpaceOnUse" x1="254" y1="222.916672" x2="254" y2="95.916664" gradientTransform="matrix(0.125012,0,0,0.125012,0,26.877566)">
<stop offset="0" style="stop-color:rgb(93.725491%,32.549021%,31.37255%);stop-opacity:1;"/>
<stop offset="1" style="stop-color:rgb(89.803922%,45.09804%,45.09804%);stop-opacity:1;"/>
</linearGradient>
<linearGradient id="linear9" gradientUnits="userSpaceOnUse" x1="254" y1="-31.083334" x2="254" y2="-158.083328" gradientTransform="matrix(0.125012,0,0,0.125012,0,26.877566)">
<stop offset="0" style="stop-color:rgb(87.843138%,87.843138%,87.843138%);stop-opacity:1;"/>
<stop offset="1" style="stop-color:rgb(93.333334%,93.333334%,93.333334%);stop-opacity:1;"/>
</linearGradient>
</defs>
<g id="surface1">
<path style=" stroke:none;fill-rule:nonzero;fill:url(#linear0);" d="M 13.230469 54.84375 L 50.277344 54.84375 L 50.277344 57.683594 L 13.230469 57.683594 Z M 13.230469 54.84375 "/>
<path style=" stroke:none;fill-rule:nonzero;fill:url(#radial0);" d="M 50.277344 54.941406 L 55.566406 54.941406 L 55.566406 52.292969 L 50.277344 52.292969 Z M 50.277344 54.941406 "/>
<path style=" stroke:none;fill-rule:nonzero;fill:url(#radial1);" d="M 13.230469 54.941406 L 7.9375 54.941406 L 7.9375 57.585938 L 13.230469 57.585938 Z M 13.230469 54.941406 "/>
<path style=" stroke:none;fill-rule:nonzero;fill:url(#radial2);" d="M 13.230469 54.941406 L 7.9375 54.941406 L 7.9375 52.292969 L 13.230469 52.292969 Z M 13.230469 54.941406 "/>
<path style=" stroke:none;fill-rule:nonzero;fill:url(#radial3);" d="M 50.277344 54.941406 L 55.566406 54.941406 L 55.566406 57.585938 L 50.277344 57.585938 Z M 50.277344 54.941406 "/>
<path style=" stroke:none;fill-rule:nonzero;fill:url(#linear1);" d="M 10.585938 7.113281 C 9.117188 7.113281 7.9375 8.296875 7.9375 9.761719 L 7.9375 22.992188 L 23.816406 22.992188 L 23.816406 7.113281 Z M 10.585938 7.113281 "/>
<path style=" stroke:none;fill-rule:nonzero;fill:url(#linear2);" d="M 39.691406 7.113281 L 39.691406 22.992188 L 55.566406 22.992188 L 55.566406 9.761719 C 55.566406 8.296875 54.386719 7.113281 52.921875 7.113281 Z M 39.691406 7.113281 "/>
<path style=" stroke:none;fill-rule:nonzero;fill:url(#linear3);" d="M 7.9375 38.867188 L 7.9375 52.097656 C 7.9375 53.566406 9.117188 54.746094 10.585938 54.746094 L 23.816406 54.746094 L 23.816406 38.867188 Z M 7.9375 38.867188 "/>
<path style=" stroke:none;fill-rule:nonzero;fill:url(#linear4);" d="M 7.9375 22.992188 L 23.816406 22.992188 L 23.816406 38.867188 L 7.9375 38.867188 Z M 7.9375 22.992188 "/>
<path style=" stroke:none;fill-rule:nonzero;fill:url(#linear5);" d="M 39.691406 38.867188 L 39.691406 54.746094 L 52.921875 54.746094 C 54.386719 54.746094 55.566406 53.566406 55.566406 52.097656 L 55.566406 38.867188 Z M 39.691406 38.867188 "/>
<path style=" stroke:none;fill-rule:nonzero;fill:url(#linear6);" d="M 39.691406 22.992188 L 55.566406 22.992188 L 55.566406 38.867188 L 39.691406 38.867188 Z M 39.691406 22.992188 "/>
<path style=" stroke:none;fill-rule:nonzero;fill:url(#linear7);" d="M 23.816406 22.992188 L 39.691406 22.992188 L 39.691406 38.867188 L 23.816406 38.867188 Z M 23.816406 22.992188 "/>
<path style=" stroke:none;fill-rule:nonzero;fill:url(#linear8);" d="M 23.816406 38.867188 L 39.691406 38.867188 L 39.691406 54.746094 L 23.816406 54.746094 Z M 23.816406 38.867188 "/>
<path style=" stroke:none;fill-rule:nonzero;fill:url(#linear9);" d="M 23.816406 7.117188 L 39.691406 7.117188 L 39.691406 22.992188 L 23.816406 22.992188 Z M 23.816406 7.117188 "/>
<path style=" stroke:none;fill-rule:nonzero;fill:rgb(100%,100%,100%);fill-opacity:0.784314;" d="M 10.585938 7.113281 C 9.117188 7.113281 7.9375 8.296875 7.9375 9.761719 L 7.9375 10.121094 C 7.9375 8.65625 9.117188 7.476562 10.585938 7.476562 L 52.921875 7.476562 C 54.386719 7.476562 55.566406 8.65625 55.566406 10.121094 L 55.566406 9.761719 C 55.566406 8.296875 54.386719 7.113281 52.921875 7.113281 Z M 10.585938 7.113281 "/>
<path style=" stroke:none;fill-rule:nonzero;fill:rgb(0%,0%,0%);fill-opacity:0.235294;" d="M 10.585938 54.773438 C 9.117188 54.773438 7.9375 53.59375 7.9375 52.128906 L 7.9375 51.769531 C 7.9375 53.234375 9.117188 54.414062 10.585938 54.414062 L 52.921875 54.414062 C 54.386719 54.414062 55.566406 53.234375 55.566406 51.769531 L 55.566406 52.128906 C 55.566406 53.59375 54.386719 54.773438 52.921875 54.773438 Z M 10.585938 54.773438 "/>
<path style=" stroke:none;fill-rule:nonzero;fill:rgb(100%,100%,100%);fill-opacity:1;" d="M 7.9375 22.992188 L 7.9375 23.652344 L 23.816406 23.652344 L 23.816406 22.992188 Z M 7.9375 22.992188 "/>
<path style=" stroke:none;fill-rule:nonzero;fill:rgb(100%,100%,100%);fill-opacity:1;" d="M 10.585938 7.113281 C 9.117188 7.113281 7.9375 8.296875 7.9375 9.761719 L 7.9375 10.421875 C 7.9375 8.957031 9.117188 7.777344 10.585938 7.777344 L 23.816406 7.777344 L 23.816406 7.113281 Z M 10.585938 7.113281 "/>
<path style=" stroke:none;fill-rule:nonzero;fill:rgb(100%,100%,100%);fill-opacity:0.588235;" d="M 39.691406 7.113281 L 39.691406 7.777344 L 52.921875 7.777344 C 54.386719 7.777344 55.566406 8.957031 55.566406 10.421875 L 55.566406 9.761719 C 55.566406 8.296875 54.386719 7.113281 52.921875 7.113281 Z M 39.691406 7.113281 "/>
<path style=" stroke:none;fill-rule:nonzero;fill:rgb(100%,100%,100%);fill-opacity:0.980645;" d="M 7.9375 38.867188 L 7.9375 39.53125 L 23.816406 39.53125 L 23.816406 38.867188 Z M 7.9375 38.867188 "/>
<path style=" stroke:none;fill-rule:nonzero;fill:rgb(100%,100%,100%);fill-opacity:0.392157;" d="M 39.691406 38.867188 L 39.691406 39.53125 L 55.566406 39.53125 L 55.566406 38.867188 Z M 39.691406 38.867188 "/>
<path style=" stroke:none;fill-rule:nonzero;fill:rgb(100%,100%,100%);fill-opacity:0.392157;" d="M 39.691406 22.992188 L 39.691406 23.652344 L 55.566406 23.652344 L 55.566406 22.992188 Z M 39.691406 22.992188 "/>
<path style=" stroke:none;fill-rule:nonzero;fill:rgb(100%,100%,100%);fill-opacity:0.784314;" d="M 23.816406 22.992188 L 23.816406 23.652344 L 39.691406 23.652344 L 39.691406 22.992188 Z M 23.816406 22.992188 "/>
<path style=" stroke:none;fill-rule:nonzero;fill:rgb(100%,100%,100%);fill-opacity:0.392157;" d="M 23.816406 38.867188 L 23.816406 39.53125 L 39.691406 39.53125 L 39.691406 38.867188 Z M 23.816406 38.867188 "/>
<path style=" stroke:none;fill-rule:nonzero;fill:rgb(100%,100%,100%);fill-opacity:1;" d="M 23.816406 7.113281 L 23.816406 7.777344 L 39.691406 7.777344 L 39.691406 7.113281 Z M 23.816406 7.113281 "/>
<path style=" stroke:none;fill-rule:nonzero;fill:rgb(0%,0%,0%);fill-opacity:0.235294;" d="M 7.9375 38.207031 L 7.9375 38.867188 L 23.816406 38.867188 L 23.816406 38.207031 Z M 7.9375 38.207031 "/>
<path style=" stroke:none;fill-rule:nonzero;fill:rgb(0%,0%,0%);fill-opacity:0.235294;" d="M 7.9375 22.332031 L 7.9375 22.992188 L 23.816406 22.992188 L 23.816406 22.332031 Z M 7.9375 22.332031 "/>
<path style=" stroke:none;fill-rule:nonzero;fill:rgb(0%,0%,0%);fill-opacity:0.235294;" d="M 39.691406 22.332031 L 39.691406 22.992188 L 55.566406 22.992188 L 55.566406 22.332031 Z M 39.691406 22.332031 "/>
<path style=" stroke:none;fill-rule:nonzero;fill:rgb(0%,0%,0%);fill-opacity:0.235294;" d="M 7.9375 51.4375 L 7.9375 52.097656 C 7.9375 53.566406 9.117188 54.746094 10.585938 54.746094 L 23.816406 54.746094 L 23.816406 54.082031 L 10.585938 54.082031 C 9.117188 54.082031 7.9375 52.902344 7.9375 51.4375 Z M 7.9375 51.4375 "/>
<path style=" stroke:none;fill-rule:nonzero;fill:rgb(0%,0%,0%);fill-opacity:0.235294;" d="M 55.566406 51.4375 C 55.566406 52.902344 54.386719 54.082031 52.921875 54.082031 L 39.691406 54.082031 L 39.691406 54.746094 L 52.921875 54.746094 C 54.386719 54.746094 55.566406 53.566406 55.566406 52.097656 Z M 55.566406 51.4375 "/>
<path style=" stroke:none;fill-rule:nonzero;fill:rgb(0%,0%,0%);fill-opacity:0.235294;" d="M 39.691406 38.207031 L 39.691406 38.867188 L 55.566406 38.867188 L 55.566406 38.207031 Z M 39.691406 38.207031 "/>
<path style=" stroke:none;fill-rule:nonzero;fill:rgb(0%,0%,0%);fill-opacity:0.235294;" d="M 23.816406 38.207031 L 23.816406 38.867188 L 39.691406 38.867188 L 39.691406 38.207031 Z M 23.816406 38.207031 "/>
<path style=" stroke:none;fill-rule:nonzero;fill:rgb(0%,0%,0%);fill-opacity:0.235294;" d="M 23.816406 54.082031 L 23.816406 54.746094 L 39.691406 54.746094 L 39.691406 54.082031 Z M 23.816406 54.082031 "/>
<path style=" stroke:none;fill-rule:nonzero;fill:rgb(0%,0%,0%);fill-opacity:0.235294;" d="M 23.816406 22.332031 L 23.816406 22.992188 L 39.691406 22.992188 L 39.691406 22.332031 Z M 23.816406 22.332031 "/>
<path style=" stroke:none;fill-rule:nonzero;fill:rgb(12.941177%,12.941177%,12.941177%);fill-opacity:1;" d="M 10.585938 6.925781 C 9.019531 6.925781 7.75 8.195312 7.75 9.761719 L 7.75 52.097656 C 7.75 53.664062 9.019531 54.933594 10.585938 54.933594 L 52.921875 54.933594 C 54.488281 54.933594 55.753906 53.664062 55.753906 52.097656 L 55.753906 9.761719 C 55.753906 8.195312 54.488281 6.925781 52.921875 6.925781 Z M 24.003906 7.300781 L 39.503906 7.300781 L 39.503906 22.804688 L 24.003906 22.804688 Z M 10.585938 7.304688 L 23.628906 7.304688 L 23.628906 22.804688 L 8.125 22.804688 L 8.125 9.761719 C 8.125 8.394531 9.21875 7.304688 10.585938 7.304688 Z M 39.878906 7.304688 L 52.921875 7.304688 C 54.285156 7.304688 55.378906 8.394531 55.378906 9.761719 L 55.378906 22.804688 L 39.878906 22.804688 Z M 24.003906 23.179688 L 39.503906 23.179688 L 39.503906 38.679688 L 24.003906 38.679688 Z M 8.125 23.179688 L 23.628906 23.179688 L 23.628906 38.679688 L 8.125 38.679688 Z M 39.878906 23.179688 L 55.378906 23.179688 L 55.378906 38.679688 L 39.878906 38.679688 Z M 24.003906 39.054688 L 39.503906 39.054688 L 39.503906 54.558594 L 24.003906 54.558594 Z M 39.878906 39.054688 L 55.378906 39.054688 L 55.378906 52.097656 C 55.378906 53.464844 54.285156 54.558594 52.921875 54.558594 L 39.878906 54.558594 Z M 8.125 39.054688 L 23.628906 39.054688 L 23.628906 54.558594 L 10.585938 54.558594 C 9.21875 54.558594 8.125 53.464844 8.125 52.097656 Z M 8.125 39.054688 "/>
</g>
</svg>
